X:54
T:Kaleidoscope (M. Perrone)
C:Trad 1, 115
M:3/4
L:1/8
K:C
A2e3c|B2A2GB|AE AB cA|B2dB GB|1 A2e3c|\
B2A2G2|F6|E6:|2 A2E2c2|B2A2G2|A6||
K:G
G2 DG Bd|c2B2A2|G2 DG Bd|AB AF DF|\
G2 DG Bd|c2B2A2|G2 DG BG|=F4 ^F2|
G2 GD Bd|cD BD AD|GD GB dB|A4F2|\
G2 GD Bd|c2 B2A2|G2 FG AF|G6||**
